X: 100449
M: 6/8
L: 1/8
K: A
x & v(A//B//c//d// | e6 & e3) (ecA) | e6 & (ecA) (Bcd) | e6 & e3 (ecA) | e6 & (Bcd) c2 \
     (A//B//c//d// | e6 & e3) (ecA) | e6 & (ecA) (Bcd) | (c>a)ve Tfed | (cd)B A2(c/B/) |
"^Coda" e6 & ve3 (ecA) | e6 & (ecA) (Bcd) | e6 & e3 (ecA) | e6 & (Bcd) c2(A//B//c//d// |\
e6 & e3) (ecA) | e6 & (ecA) (Bcd) | (c<a)vf edB | A2z v[a2A2]z H|][K:D]
vAFA dAd | f>ed d>cB | A>GF F>ED | E3- E2vA/uA/ |\


